assets/svg/1F638.svg

<svg xmlns="http://www.w3.org/2000/svg" viewBox="0 0 64 64" enable-background="new 0 0 64 64"><path fill="#7094a6" d="m50.03 10.639c-.994 4.161 9.07 12.847 12 13.545 2.929.699 1.567-8.208 1.433-13.198-.142-5.136-.016-10.332-2.945-11.03-2.925-.699-9.498 6.522-10.49 10.683"/><path fill="#eda75a" d="m50.52 13.884c-.863 3.616 7.879 11.157 10.421 11.765s1.362-7.126 1.244-11.461c-.123-4.46-.012-8.973-2.555-9.577-2.542-.609-8.25 5.66-9.11 9.273"/><path fill="#7094a6" d="m14.171 10.639c.995 4.161-9.08 12.847-12 13.545-2.929.699-1.571-8.208-1.433-13.198.138-5.136.015-10.332 2.941-11.03 2.929-.699 9.503 6.522 10.494 10.683"/><path fill="#eda75a" d="m13.891 13.884c.864 3.616-7.881 11.157-10.423 11.765-2.542.608-1.362-7.126-1.244-11.461.122-4.461.016-8.974 2.558-9.578 2.539-.608 8.248 5.661 9.109 9.274"/><path fill="#87b1c1" d="m63.892 31.52c0 17.655-14.308 31.963-31.963 31.963-17.656 0-31.963-14.308-31.963-31.963 0-17.651 14.307-29.941 31.963-29.941 17.655-.0001 31.963 12.289 31.963 29.941"/><path fill="#7094a6" d="m15.178 40.868c-5.666-12.156-5.307-24.2-.186-35.01-8.915 4.836-15.03 14.497-15.03 25.669 0 17.651 14.307 31.963 31.963 31.963.316 0 .624-.04.935-.048-7.327-6.17-13.502-13.587-17.686-22.57"/><g fill="#394c54"><path d="m26.409 32.2c0-2.594 2.208-2.547 5.22-2.547 3.01 0 5.685-.047 5.685 2.547 0 2.598-2.439 4.702-5.452 4.702-3.01-.0001-5.453-2.104-5.453-4.702"/><path d="m56.837 39.02c0 11.09-11.167 20.09-24.934 20.09-13.754 0-24.925-9-24.925-20.09"/></g><path fill="#fff" d="m53.57 40.4c0 4.552-9.728 8.243-21.713 8.243-11.982 0-21.708-3.691-21.708-8.243"/><path fill="#394c54" d="m45.37 43.44c0 4.924-6.29 8.921-14.05 8.921-7.75 0-14.05-3.997-14.05-8.921"/><g fill="#5e7d89"><path d="m23.786 34.36c-.044.76-.566 1.349-1.17 1.314l-17.04-.962c-.602-.034-1.06-.678-1.014-1.439l0 0c.043-.758.568-1.348 1.17-1.315l17.04.964c.603.035 1.056.678 1.014 1.438l0 0"/><path d="m23.11 37.557c.124.716-.18 1.365-.677 1.452l-14.08 2.441c-.498.088-1-.425-1.127-1.141l0 0c-.125-.715.18-1.366.677-1.452l14.08-2.442c.497-.087 1 .426 1.127 1.142l0 0"/><path d="m39.937 34.06c.044.761.566 1.349 1.171 1.315l17.04-.964c.602-.033 1.056-.677 1.014-1.438l0 0c-.042-.758-.568-1.349-1.17-1.315l-17.04.963c-.605.036-1.061.679-1.016 1.439l0 0"/><path d="m40.606 37.25c-.123.716.181 1.366.679 1.453l14.08 2.441c.497.087 1-.425 1.127-1.141l0 0c.124-.715-.18-1.366-.678-1.452l-14.08-2.442c-.497-.087-1 .426-1.129 1.141l0 0"/></g><g fill="#394c54"><path d="m28.387 25.396c-1.382-3.774-4.518-7.387-8.847-7.303-4.04.079-6.473 4.35-7.79 7.583-.821 2.02 2.448 2.89 3.261.9.845-2.077 2.09-4.371 4.375-5.065 2.615-.802 5.01 2.791 5.74 4.785.743 2.03 4.01 1.153 3.261-.9"/><path d="m34.26 25.36c1.382-3.774 4.517-7.386 8.848-7.303 4.04.079 6.471 4.351 7.787 7.584.823 2.02-2.448 2.89-3.259.9-.845-2.081-2.093-4.371-4.375-5.069-2.617-.798-5.01 2.795-5.74 4.789-.744 2.025-4.01 1.149-3.261-.901"/></g></svg>

<?xml version="1.0" encoding="UTF-8" standalone="no"?>
<!-- Generator: Adobe Illustrator 16.0.0, SVG Export Plug-In . SVG Version: 6.00 Build 0)  -->

<svg
   xmlns:dc="http://purl.org/dc/elements/1.1/"
   xmlns:cc="http://creativecommons.org/ns#"
   xmlns:rdf="http://www.w3.org/1999/02/22-rdf-syntax-ns#"
   xmlns:svg="http://www.w3.org/2000/svg"
   xmlns="http://www.w3.org/2000/svg"
   xmlns:sodipodi="http://sodipodi.sourceforge.net/DTD/sodipodi-0.dtd"
   xmlns:inkscape="http://www.inkscape.org/namespaces/inkscape"
   version="1.1"
   id="Layer_1"
   x="0px"
   y="0px"
   width="64px"
   height="64px"
   viewBox="0 0 64 64"
   enable-background="new 0 0 64 64"
   xml:space="preserve"
   inkscape:version="0.48.5 r10040"
   sodipodi:docname="1F638.svg"
   inkscape:export-filename="D:\TESTINGEMOJI\SVGTEST\1F638.png"
   inkscape:export-xdpi="90"
   inkscape:export-ydpi="90"><metadata
   id="metadata7712"><rdf:RDF><cc:Work
       rdf:about=""><dc:format>image/svg+xml</dc:format><dc:type
         rdf:resource="http://purl.org/dc/dcmitype/StillImage" /><dc:title></dc:title></cc:Work></rdf:RDF></metadata><defs
   id="defs7710" /><sodipodi:namedview
   pagecolor="#ffffff"
   bordercolor="#666666"
   borderopacity="1"
   objecttolerance="10"
   gridtolerance="10"
   guidetolerance="10"
   inkscape:pageopacity="0"
   inkscape:pageshadow="2"
   inkscape:window-width="640"
   inkscape:window-height="480"
   id="namedview7708"
   showgrid="false"
   inkscape:zoom="3.6875"
   inkscape:cx="32"
   inkscape:cy="32"
   inkscape:window-x="655"
   inkscape:window-y="342"
   inkscape:window-maximized="0"
   inkscape:current-layer="Layer_1" />
<g
   id="g7630">
	<g
   id="g7632">
		<g
   id="g7634">
			<path
   fill="#7094A6"
   d="M50.026,10.639c-0.994,4.161,9.072,12.847,12.002,13.545c2.929,0.699,1.567-8.208,1.433-13.198     c-0.142-5.136-0.016-10.332-2.945-11.03C57.591-0.743,51.018,6.478,50.026,10.639z"
   id="path7636" />
		</g>
	</g>
	<g
   id="g7638">
		<g
   id="g7640">
			<path
   fill="#EDA75A"
   d="M50.521,13.884C49.658,17.5,58.4,25.041,60.942,25.649s1.362-7.126,1.244-11.461     c-0.123-4.46-0.012-8.973-2.555-9.577C57.089,4.002,51.381,10.271,50.521,13.884z"
   id="path7642" />
		</g>
	</g>
	<g
   id="g7644">
		<g
   id="g7646">
			<path
   fill="#7094A6"
   d="M14.171,10.639C15.166,14.8,5.094,23.486,2.169,24.184c-2.929,0.699-1.571-8.208-1.433-13.198     C0.874,5.85,0.751,0.654,3.677-0.044C6.606-0.743,13.18,6.478,14.171,10.639z"
   id="path7648" />
		</g>
	</g>
	<g
   id="g7650">
		<g
   id="g7652">
			<path
   fill="#EDA75A"
   d="M13.891,13.884C14.755,17.5,6.01,25.041,3.468,25.649c-2.542,0.608-1.362-7.126-1.244-11.461     C2.346,9.727,2.24,5.214,4.782,4.61C7.321,4.002,13.03,10.271,13.891,13.884z"
   id="path7654" />
		</g>
	</g>
	<g
   id="g7656">
		<g
   id="g7658">
			<path
   fill="#87B1C1"
   d="M63.892,31.52c0,17.655-14.308,31.963-31.963,31.963c-17.656,0-31.963-14.308-31.963-31.963     c0-17.651,14.307-29.941,31.963-29.941C49.584,1.578,63.892,13.868,63.892,31.52z"
   id="path7660" />
		</g>
	</g>
	<g
   id="g7662">
		<g
   id="g7664">
			<g
   id="g7666">
				<path
   fill="#7094A6"
   d="M15.178,40.868C9.512,28.712,9.871,16.667,14.992,5.854C6.077,10.69-0.034,20.351-0.034,31.523      c0,17.651,14.307,31.963,31.963,31.963c0.316,0,0.624-0.04,0.935-0.048C25.537,57.268,19.362,49.851,15.178,40.868z"
   id="path7668" />
			</g>
		</g>
	</g>
	<g
   id="g7670">
		<g
   id="g7672">
			<path
   fill="#394C54"
   d="M26.409,32.201c0-2.594,2.208-2.547,5.22-2.547c3.013,0,5.685-0.047,5.685,2.547     c0,2.598-2.439,4.702-5.452,4.702C28.853,36.902,26.409,34.799,26.409,32.201z"
   id="path7674" />
		</g>
	</g>
	<g
   id="g7676">
		<g
   id="g7678">
			<path
   fill="#394C54"
   d="M56.837,39.022c0,11.093-11.167,20.093-24.934,20.093c-13.754,0-24.925-9-24.925-20.093"
   id="path7680" />
		</g>
	</g>
	<g
   id="g7682">
		<g
   id="g7684">
			<path
   fill="#FFFFFF"
   d="M53.572,40.399c0,4.552-9.728,8.243-21.713,8.243c-11.982,0-21.708-3.691-21.708-8.243"
   id="path7686" />
		</g>
	</g>
	<g
   id="g7688">
		<path
   fill="#394C54"
   d="M45.368,43.443c0,4.924-6.29,8.921-14.045,8.921c-7.75,0-14.045-3.997-14.045-8.921"
   id="path7690" />
	</g>
	<g
   id="g7692">
		<path
   fill="#5E7D89"
   d="M23.786,34.364c-0.044,0.76-0.566,1.349-1.17,1.314L5.578,34.716c-0.602-0.034-1.06-0.678-1.014-1.439l0,0    c0.043-0.758,0.568-1.348,1.17-1.315l17.038,0.964C23.375,32.961,23.828,33.604,23.786,34.364L23.786,34.364z"
   id="path7694" />
		<path
   fill="#5E7D89"
   d="M23.115,37.557c0.124,0.716-0.18,1.365-0.677,1.452L8.359,41.45c-0.498,0.088-1.003-0.425-1.127-1.141l0,0    c-0.125-0.715,0.18-1.366,0.677-1.452l14.079-2.442C22.485,36.328,22.99,36.841,23.115,37.557L23.115,37.557z"
   id="path7696" />
		<path
   fill="#5E7D89"
   d="M39.937,34.06c0.044,0.761,0.566,1.349,1.171,1.315l17.038-0.964c0.602-0.033,1.056-0.677,1.014-1.438l0,0    c-0.042-0.758-0.568-1.349-1.17-1.315l-17.037,0.963C40.348,32.657,39.892,33.3,39.937,34.06L39.937,34.06z"
   id="path7698" />
		<path
   fill="#5E7D89"
   d="M40.606,37.252c-0.123,0.716,0.181,1.366,0.679,1.453l14.079,2.441c0.497,0.087,1.003-0.425,1.127-1.141    l0,0c0.124-0.715-0.18-1.366-0.678-1.452l-14.078-2.442C41.238,36.024,40.733,36.537,40.606,37.252L40.606,37.252z"
   id="path7700" />
	</g>
	<g
   id="g7702">
		<path
   fill="#394C54"
   d="M28.387,25.396c-1.382-3.774-4.518-7.387-8.847-7.303c-4.039,0.079-6.473,4.35-7.79,7.583    c-0.821,2.021,2.448,2.89,3.261,0.9c0.845-2.077,2.09-4.371,4.375-5.065c2.615-0.802,5.01,2.791,5.74,4.785    C25.869,28.326,29.137,27.449,28.387,25.396z"
   id="path7704" />
		<path
   fill="#394C54"
   d="M34.258,25.36c1.382-3.774,4.517-7.386,8.848-7.303c4.039,0.079,6.471,4.351,7.787,7.584    c0.823,2.021-2.448,2.89-3.259,0.9c-0.845-2.081-2.093-4.371-4.375-5.069c-2.617-0.798-5.011,2.795-5.74,4.789    C36.775,28.286,33.508,27.41,34.258,25.36z"
   id="path7706" />
	</g>
</g>
</svg>
